libs/ui/packages/crypto-icons/src/svg/WTC.svg

<svg width="24" height="24" viewBox="0 0 24 24" fill="none">
<path fill-rule="evenodd" clip-rule="evenodd" d="M13.8105 9.87449L13.3005 9.99974C12.84 10.1122 12.5175 10.5172 12.5175 10.9822V14.3857L10.8322 14.7982C10.7002 14.8316 10.5603 14.8116 10.443 14.7425C10.3256 14.6734 10.2402 14.5609 10.2053 14.4292C10.1951 14.389 10.1901 14.3477 10.1902 14.3062V8.63999C10.1902 8.40749 10.3515 8.20499 10.5817 8.14799L13.1677 7.51499C13.2998 7.48161 13.4397 7.50164 13.557 7.57071C13.6744 7.63979 13.7598 7.75235 13.7948 7.88399C13.8053 7.92374 13.8097 7.96499 13.8097 8.00624V9.87449H13.8105ZM8.121 9.84298L7.482 9.99974C7.0215 10.1122 6.69825 10.5172 6.69825 10.9822V14.4172L5.14275 14.7982C5.01071 14.8316 4.87084 14.8116 4.75346 14.7425C4.63609 14.6734 4.55068 14.5609 4.51575 14.4292C4.50538 14.3891 4.50009 14.3477 4.5 14.3062V8.63999C4.5 8.40749 4.66125 8.20499 4.8915 8.14799L7.47825 7.51499C7.61029 7.48161 7.75016 7.50164 7.86754 7.57071C7.98491 7.63979 8.07032 7.75235 8.10525 7.88399C8.11575 7.92374 8.12025 7.96499 8.12025 8.00624V9.84374L8.121 9.84298ZM16.2712 8.16374L18.8573 7.53074C18.9892 7.49734 19.129 7.51726 19.2463 7.58618C19.3637 7.65511 19.4492 7.76749 19.4843 7.89898C19.4947 7.93915 19.5 7.98048 19.5 8.02199V13.689C19.5 13.9215 19.3388 14.124 19.1085 14.1802L16.5217 14.8132C16.3898 14.8466 16.25 14.8267 16.1327 14.7578C16.0153 14.6889 15.9298 14.5765 15.8948 14.445C15.8846 14.4048 15.8796 14.3635 15.8798 14.322V8.65499C15.8798 8.42249 16.041 8.21999 16.2712 8.16374Z" fill="white"/>
<path opacity="0.504" fill-rule="evenodd" clip-rule="evenodd" d="M9.67276 9.9855V14.3063C9.67276 14.3888 9.68251 14.4713 9.70276 14.5523C9.76742 14.7948 9.91801 15.0055 10.1265 15.1453C10.335 15.2851 10.5871 15.3443 10.836 15.312V16.0163C10.836 16.2488 10.6748 16.4513 10.4445 16.5075L7.85851 17.1405C7.72647 17.1741 7.58649 17.1543 7.46897 17.0854C7.35144 17.0164 7.26585 16.9039 7.23076 16.7723C7.22065 16.732 7.21561 16.6907 7.21576 16.6493V10.9823C7.21576 10.7498 7.37701 10.5473 7.60726 10.491L9.67276 9.9855ZM15.3623 10.017V14.322C15.3623 14.4045 15.3728 14.487 15.3923 14.568C15.5318 15.1103 16.0935 15.4403 16.6478 15.3045L16.6553 15.303V16.0155C16.6544 16.1295 16.6153 16.2398 16.5444 16.329C16.4734 16.4182 16.3746 16.481 16.2638 16.5075L13.677 17.1405C13.5451 17.1739 13.4053 17.154 13.2879 17.0851C13.1706 17.0161 13.0851 16.9037 13.05 16.7723C13.0399 16.732 13.0349 16.6907 13.035 16.6493V10.9823C13.035 10.7498 13.1963 10.5473 13.4265 10.491L15.3615 10.017H15.3623Z" fill="white"/>
<path fill-rule="evenodd" clip-rule="evenodd" d="M13.8105 9.54667L13.3005 9.67192C12.84 9.78442 12.5175 10.1894 12.5175 10.6544V14.0579L10.8322 14.4704C10.7002 14.5038 10.5603 14.4838 10.443 14.4147C10.3256 14.3456 10.2402 14.2331 10.2053 14.1014C10.1951 14.0612 10.1901 14.0199 10.1902 13.9784V8.31217C10.1902 8.07967 10.3515 7.87717 10.5817 7.82017L13.1677 7.18717C13.2998 7.15379 13.4397 7.17382 13.557 7.24289C13.6744 7.31197 13.7598 7.42453 13.7948 7.55617C13.8053 7.59592 13.8097 7.63717 13.8097 7.67842V9.54667H13.8105ZM8.121 9.51517L7.482 9.67192C7.0215 9.78442 6.69825 10.1894 6.69825 10.6544V14.0894L5.14275 14.4704C5.01071 14.5038 4.87084 14.4838 4.75346 14.4147C4.63609 14.3456 4.55068 14.2331 4.51575 14.1014C4.50538 14.0612 4.50009 14.0199 4.5 13.9784V8.31217C4.5 8.07967 4.66125 7.87717 4.8915 7.82017L7.47825 7.18717C7.61029 7.15379 7.75016 7.17382 7.86754 7.24289C7.98491 7.31197 8.07032 7.42453 8.10525 7.55617C8.11575 7.59592 8.12025 7.63717 8.12025 7.67842V9.51592L8.121 9.51517ZM16.2712 7.83592L18.8573 7.20292C18.9892 7.16952 19.129 7.18944 19.2463 7.25836C19.3637 7.32729 19.4492 7.43967 19.4843 7.57116C19.4947 7.61133 19.5 7.65266 19.5 7.69417V13.3612C19.5 13.5937 19.3388 13.7962 19.1085 13.8524L16.5217 14.4854C16.3898 14.5188 16.25 14.4989 16.1327 14.43C16.0153 14.361 15.9298 14.2487 15.8948 14.1172C15.8846 14.077 15.8796 14.0356 15.8798 13.9942V8.32717C15.8798 8.09467 16.041 7.89217 16.2712 7.83592Z" fill="#8200FF"/>
<path opacity="0.504" fill-rule="evenodd" clip-rule="evenodd" d="M9.67276 9.65768V13.9784C9.67276 14.0609 9.68251 14.1434 9.70276 14.2244C9.76742 14.4669 9.91801 14.6777 10.1265 14.8175C10.335 14.9572 10.5871 15.0165 10.836 14.9842V15.6884C10.836 15.9209 10.6748 16.1234 10.4445 16.1797L7.85851 16.8127C7.72647 16.8463 7.58649 16.8265 7.46897 16.7576C7.35144 16.6886 7.26585 16.5761 7.23076 16.4444C7.22065 16.4042 7.21561 16.3629 7.21576 16.3214V10.6544C7.21576 10.4219 7.37701 10.2194 7.60726 10.1632L9.67276 9.65768ZM15.3623 9.68918V13.9942C15.3623 14.0767 15.3728 14.1592 15.3923 14.2402C15.5318 14.7824 16.0935 15.1124 16.6478 14.9767L16.6553 14.9752V15.6877C16.6544 15.8016 16.6153 15.912 16.5444 16.0012C16.4734 16.0904 16.3746 16.1532 16.2638 16.1797L13.677 16.8127C13.5451 16.8461 13.4053 16.8262 13.2879 16.7572C13.1706 16.6883 13.0851 16.5759 13.05 16.4444C13.0399 16.4042 13.0349 16.3629 13.035 16.3214V10.6544C13.035 10.4219 13.1963 10.2194 13.4265 10.1632L15.3615 9.68918H15.3623Z" fill="#8200FF"/>
</svg>

<svg width="24" height="24" viewBox="0 0 24 24" fill="none"><path fill="#fff" fill-rule="evenodd" d="M13.81 9.874 13.3 10c-.46.112-.783.517-.783.982v3.404l-1.685.412a.517.517 0 0 1-.642-.492V8.64a.51.51 0 0 1 .392-.492l2.586-.633a.517.517 0 0 1 .642.491zm-5.689-.031L7.482 10c-.46.112-.784.517-.784.982v3.435l-1.555.381a.517.517 0 0 1-.643-.492V8.64a.51.51 0 0 1 .391-.492l2.587-.633a.518.518 0 0 1 .642.491zm8.15-1.68 2.586-.632a.517.517 0 0 1 .643.491v5.667a.51.51 0 0 1-.392.491l-2.586.633a.517.517 0 0 1-.642-.491V8.655c0-.233.161-.435.391-.491" clip-rule="evenodd"/><path fill="#fff" fill-rule="evenodd" d="M9.673 9.986v4.32q0 .124.03.246a1.035 1.035 0 0 0 1.133.76v.704a.51.51 0 0 1-.392.492l-2.585.633a.52.52 0 0 1-.628-.369.5.5 0 0 1-.015-.123v-5.667c0-.232.161-.435.391-.491zm5.69.031v4.305q0 .125.03.246c.139.542.7.872 1.255.737l.007-.002v.712a.51.51 0 0 1-.391.492l-2.587.633a.52.52 0 0 1-.627-.368.5.5 0 0 1-.015-.123v-5.667c0-.232.161-.435.392-.491z" clip-rule="evenodd" opacity=".504"/><path fill="#8200ff" fill-rule="evenodd" d="m13.81 9.547-.51.125c-.46.112-.783.517-.783.982v3.404l-1.685.412a.517.517 0 0 1-.642-.492V8.312a.51.51 0 0 1 .392-.492l2.586-.633a.517.517 0 0 1 .642.491zm-5.689-.032-.639.157c-.46.112-.784.517-.784.982v3.435l-1.555.381a.517.517 0 0 1-.643-.492V8.312a.51.51 0 0 1 .391-.492l2.587-.633a.518.518 0 0 1 .642.491zm8.15-1.68 2.586-.632a.517.517 0 0 1 .643.491v5.667a.51.51 0 0 1-.392.491l-2.586.633a.517.517 0 0 1-.642-.49V8.326c0-.232.161-.435.391-.491" clip-rule="evenodd"/><path fill="#8200ff" fill-rule="evenodd" d="M9.673 9.658v4.32q0 .124.03.246a1.035 1.035 0 0 0 1.133.76v.704a.51.51 0 0 1-.392.492l-2.585.633a.52.52 0 0 1-.628-.369.5.5 0 0 1-.015-.123v-5.667c0-.232.161-.435.391-.49zm5.69.031v4.305q0 .124.03.246c.139.542.7.872 1.255.737l.007-.002v.713a.51.51 0 0 1-.391.492l-2.587.633a.517.517 0 0 1-.642-.492v-5.667c0-.232.161-.435.392-.49z" clip-rule="evenodd" opacity=".504"/></svg>
